X:161
T: DO KOM ALL EIN KANOENNEKEN AN
N: K2287
O: Europa, Mitteleuropa, Deutschland, Westfalen
R: Kinder - Lied, Reigen, Tanz - Spiel
M: 2/4
L: 1/8
K: G
D | GGGG | =FED2 |
EEFF | G2z
D | GGGG | =FED2 |
EEFF | G2z

